!!!OTL: "Vaterlands - Lied" AUF DEM TAGE ZU FROHLOCKEN
!!!ARE: Europa, Mitteleuropa, Deutschland
!!!SCT: Z1129
!!!YEM: Copyright 1995, estate of Helmut Schaffrath.
**kern
*ICvox
*Ivox
*M4/4
*k[f#c#g#d#]
*E:
{4e
4g#
=1
4f#
4b
4g#
8f#
8e
=2
4f#
4b}
{4g#
4cc#
=3
4b
4b
4b
4a#
=4
2b}
{4e
4g#
=5
4f#
4b
4g#
8f#
8e
=6
4f#
4b}
{4g#
4cc#
=7
4b
4b
4b
4a#
=8
2b}
{4b
8ee
8b
=9
4cc#
4b
8g#
8b
8ee
8b
=10
4cc#
4b}
{8g#
8b
8ee
8dd#
=11
8dd#
8cc#
8cc#
8b
8b
8a
8g#
16a
16b
=12
2f#}
{4b
4e
=13
4f#
4e
8b
8g#
8f#
8e
=14
8f#
8d#
4e}
{4b
8e
8f#
=15
8d#
8a
8g#
8f#
4g#
8f#
8e
=16
2e}
==
!!!AGN: Vaterland und Wehr
!!!ONB: ESAC (Essen Associative Code) Database: ZUCCAL
!!!AMT: simple quadruple
!!!AIN: vox
!!!EED: Helmut Schaffrath
!!!EEV: 1.0
*-
